X:1
T:Title
%%score 1 2 3 4
L:1/8
M:6/8
K:Bb
V:1 treble nm="Church Organ, Church Organ"
V:2 treble nm="French Horn, French Horn"
V:3 bass nm="Trombone, Trombone"
V:4 bass nm="Tuba, Tuba"
V:1
 d2 A c2 B | F3 G2 B | A3 E3 | E3 .E3 | c2 =B d2 c | A3 E2 A | G3 =E3 | F3 .F3 | d2 A c2 B | %9
w: By~Grant~Colfax~Tullar * * *|||||||||
 F3 B2 d | c3 d3 | e3 .e3 | B2 A B2 G | F3 cde | d3 c3 | B3 .B3 | d3 _d2 =d | e3 d3 | d3 c3 | %19
w: ||||||||||
 B3 .B3 | B3 A2 G | F3 d3 | c3 G3 | c3 .c3 | d3 _d2 =d | e3 d3 | d3 c3 | B3 .B3 | B3 A2 G | %29
w: ||||||||||
 F3 d2 e | d3 c3 | B3 .B3 |] %32
w: |||
V:2
 D2 D D2 D | D3 D2 D | E3[K:bass] A,3 | A,3 .A,3 | E2 E[K:treble] E2 E | E3 C2 E | E3 _D3 | %7
w: There's~ a~ man ger|Babe~ in~ a~|far~ off~|land,~ *|But~ it~ holds~ the~|world~ in~ its~|in fant~|
 D3 .D3 | D2 D D2 D | D3 D2 F | G3 G3 | G3 .G3 | G2 ^F G2 E | D3 F2 F | F3 E3 | D3 .D3 | F3 =E2 F | %17
w: hand;~ *|Just~ a~ man ger|Babe~ in~ its~|hum ble~|bed,~ *|But~ a~ match less~|crown~ is~ up|on~ its~|head.~ *|O~ man ger|
 G3 F3 | F3 E3 | D3 .D3 | G3 F2 E | D3 F3 | =E3 E3 | E3 .E3 | F3 =E2 F | G3 F3 | ^F3 DEF | G3 .G3 | %28
w: Babe,~ Thy~|low ly~|rest~ *|More~ roy al~|is~ than~|prince ly~|bed;~ *|Best~ of~ earth's~|di a|dems~ would~ * *|be~ *|
 G3 F2 E | D3 F2 G | F3 E3 | D2 E .D3 |] %32
w: On ly~ as~|dross~ on~ Thy~|King ly~|head.~ * *|
V:3
 F,2 F, F,2 F, | B,3 B,2 F, | F,3 F,3 | F,3 .F,3 | A,2 A, A,2 A, | C3 A,2 C | B,3 G,3 | F,3 .F,3 | %8
 F,2 F, F,2 F, | B,3 F,2 B, | B,3 =B,3 | C3 .C3 | B,2 C B,2[K:bass] B, | B,3 A,B,C | B,3 A,3 | %15
 B,3 .B,3 | z6 | z6 | z6 | z6 | z6 | z6 | z6 | z6 | z6 | z6 | z6 | z6 | z6 | z6 | z6 | %31
 z F,G, .F,3 |] %32
V:4
 B,,2 B,, B,,2 B,, | B,,3 B,,2 B,, | C,3 C,3 | C,3 .C,3 | F,2 F, F,2 F, | F,3 F,2 F, | B,,3 B,,3 | %7
 B,,3 .B,,3 | B,,2 B,, B,,2 B,, | B,,3 B,,2 B,, | E,3 D,3 | C,3 .C,3 | E,2 E, E,2 E, | %13
 B,,3 F,2 F, | F,3 F,3 | B,,3 .B,,3 | B,,[F,B,D][F,B,D] B,,[F,B,D][F,B,D] | %17
 B,,[F,B,D][F,B,D] B,,[F,B,D][F,B,D] | F,,[F,A,][F,A,] F,,[F,A,][F,A,] | %19
 B,,[D,F,B,][D,F,B,] B,,[D,F,B,][D,F,B,] | E,[G,B,E][G,B,E] E,[G,B,E][G,B,E] | %21
 B,,[D,F,B,][D,F,B,] B,,[D,F,B,][D,F,B,] | C,[=E,G,B,][E,G,B,] C,[E,G,B,][E,G,B,] | %23
 F,,[F,A,][F,A,] [F,,F,][G,,G,][A,,A,] | B,,[F,B,D][F,B,D] B,,[F,B,D][F,B,D] | %25
 B,,[F,B,D][F,B,D] B,,[F,B,D][F,B,D] | D,,[D,^F,C][D,F,C] D,,[D,F,C][D,F,C] | %27
 G,,[G,B,D][G,B,D] G,,[G,B,D][G,B,D] | E,[G,B,E][G,B,E] E,[G,B,E][G,B,E] | %29
 B,,[D,F,B,][D,F,B,] B,,[D,F,B,][D,F,B,] | F,,[F,A,][F,A,] F,,[F,A,][F,A,] | B,,3 .B,,3 |] %32

